X: 936
T: Stoney Point
C:Traditional
B: jims roots
M:4/4
L:1/8
Q: 1/4=100
K:G
V:1 
EF |: "G "G2 ge dged | B2 ge dcBA | G2 ge dged | "D"BAGB AGED |
"G "G2 ge dged | B2 ge dcBA | G2 ge dged |[1 f"D"dfa "G "g2 EF:|
"Em"[ee][ee][ee][ee] [e2e2] ag | "D"fdfa g2 Bd | [ee][ee][ee][ee] [e2e2] eg |
"Em"fedf ed B2 | "G "egfa "Em"gedB |[1 A"D"GFA "G "G2 Bd:| [2 A"D"GFA "G "G4||
V:2 f"D"dfa "G "g2 Bd |: "Em"[ee
V:ee 
[ee][ee] [e2e2] eg | "D"fedf ed B2 |
% abcbook-tune_id 6298c28798ad0c4e402ceb33


% abcbook-boost 0
% abcbook-tablature 
% abcbook-transpose 
% abcbook-lastupdated 1654178440975
% abcbook-soundfonts 
% abcbook-repeats 1


